X:1
T:Polska e. Kristian Oskarsson (F\"ollinge)
Z:2006 Brian Wilson <Brian.Wilson@alumni.brown.edu>
Z:Track 1, Swap, Red Jacket, first tune
M:9/8
L:1/8
K:A
|: "A"efe de2 c2e | "D/A"a2g/f/ e2d "A"c2e \
|  "D"dBd "A"cAc "E"B2G | "A"A2A AcA "E"E3 |
|  "A"efe de2 c2e | "D/A"a2g/f/ e2d "A"c2e \
|  "D"dBd "A"cAc "E"B2G | "A"A3 A6 :|
|: "A"A,2A, A,B,C A,B,C | "D"D2D DEF DEF \
|  "E"E2E EFG EFG | "A"A2A AcA E2C |
|  "A"A,2A, A,B,C A,B,C | "D"D2D DEF DEF \
|  "E"E2E EFG EFG | "A"A3 A6 :|

